X: 88
M: 2/2	% The book has just "2".
L: 1/4
K: G
dd | ed ef | gf/e/ dd | ed ef | g2 dd | ed cB | AG AB | c2 B2 | A2 GG/A/ |


